X: 19
T: No_27_Song_When_Going_to_War.krn
N: Derived from No_27_Song_When_Going_to_War.krn
%%abc-version 2.0
%%abcx-abcm2ps-target-version 5.9.1 (29 Sep 2008)
%%abc-creator hum2abc beta
%%abcx-conversion-date 2019/03/15 08:26:49
%%humdrum-veritas 1706407395
%%humdrum-veritas-data 3618192606
%%linebreak <none>
%%barnumbers 0
L: 1/8
M: 2/4
%%staves {1 2}
V: 1 clef=bass
V: 2 clef=bass
K: F
[V:1] [K:clef=bass][M:2/4]C3B, | 
[V:2] [K:clef=bass][M:2/4]!accent!G,,G,, !accent!G,,G,, | 
[V:1] (3A,G,G, G, z | 
[V:2] !accent!G,,G,,z2 | 
[V:1] D3C | 
[V:2] z4 | 
[V:1] C2DC | 
[V:2] z4 | 
[V:1] C3B, | 
[V:2] z4 | 
[V:1] (3A,G,G, G, z | 
[V:2] z4 | 
[V:1] C3B, | 
[V:2] z4 | 
[V:1] (3A,G,G,G,2 | 
[V:2] z4 | 
[V:1] !accent!C2!accent!G,2 | 
[V:2] z4 | 
[V:1] (3A,G,G, F, z | 
[V:2] z4 | 
[V:1] G,4 | 
[V:2] z4 | 
[V:1] A,G, G,F, | 
[V:2] z4 | 
[V:1] G,3F, | 
[V:2] z4 | 
[V:1] (3D,D,C, C, z | 
[V:2] z4 | 
[V:1] D,2G,F, ||  
[V:2] z4 ||  
[V:1] [M:3/4]F,D, F, z (3F,D,C, | 
[V:2] [M:3/4]z6 | 
[V:1] C,6 ||  
[V:2] z6 ||  
[V:1] [M:2/4]C,2C,2 | 
[V:2] [M:2/4]z4 | 
[V:1] D,2D, z |]  
[V:2] z4 |]  



